X:1
T:Intermezzo op.46 no. 4 Schumann
T:Robert Schumann
%%score { ( 1 2 ) | ( 3 4 ) }
L:1/8
M:4/4
K:Gb
V:1 treble nm="Piano"
V:2 treble 
V:3 bass 
V:4 bass 
V:1
 (3z/[Q:1/4=114]"^Moderato" B,/E/(3G/E/B,/ (3=A,/B,/!<(!E/(3G/E/B,/!<)! (3z/ B,/E/(3G/E/B,/ (3=A,/B,/E/(3G/E/B,/ | %1
 (3z/ _A,/E/(3G/E/A,/ (3=G,/A,/E/(3_G/E/B,/ (3z/ A,/D/(3F/D/A,/ (3G,/A,/D/(3F/D/A,/ | %2
 (3z/ G,/D/(3G/E/G,/ (3F,/G,/D/(3_G/D/G,/ (3z/ G,/=C/(3E/C/G,/ (3F,/G,/C/(3G/C/G,/ | %3
 (3z/ F,/=C/(3E/C/F,/ (3=E,/F,/=C/(3E/=C/F,/ (3z/ F,/B,/(3D/B,/F,/ (3E,/F,/B,/(3D/B,/F,/ | %4
 (3z/ B,/E/(3G/E/B,/ (3=A,/B,/E/(3G/E/B,/ (3z/ B,/E/(3G/E/B,/ (3=A,/B,/E/(3G/E/B,/ | %5
 (3z/ _A,/E/(3G/E/A,/ (3=G,/A,/E/(3_G/E/B,/ (3z/ A,/D/(3F/D/A,/ (3G,/A,/D/(3F/D/A,/ | %6
 (3z/ =G,/D/(3G/E/G,/ (3^F,/G,/D/(3_G/D/G,/ (3z/ B,/=C/(3=E/C/B,/ (3=A,/B,/C/(3_E/C/B,/ | %7
 (3z/ =A,/=C/(3F/C/A,/ (3^G,/A,/C/(3F/C/A,/ (3z/ A,/C/(3F/C/A,/ (3z/ A,/C/(3F/C/A,/ | %8
 (3z/ B,/D/(3F/D/B,/ (3=A,/B,/D/(3F/D/B,/ (3z/ E/G/(3=A/G/E/ (3=D/E/G/(3A/G/_D/ | %9
 (3z/ B,/D/(3F/D/B,/ (3=A,/B,/D/(3F/D/B,/ (3z/ F/=A/(3=c/A/F/ (3=B,/=C/__B/(3_c/B/C/ | %10
 (3z/ D/A/(3d/A/D/ (3=C/D/A/(3d/A/D/ (3z/ B/d/(3e/d/B/ (3=A/B/d/(3b/d/B/ | %11
 (3z/ B/=c/(3e/c/A/ (3=G/A/c/(3e/c/A/ (3z/ A/c/(3d/c/A/ (3G/A/c/(3a/c/A/ | %12
 (3z/ G/B/(3d/B/G/ (3F/G/B/(3d/B/G/ (3z/ G/B/(3e/B/G/ (3F/G/B/(3g/B/G/ | %13
 (3z/ F/=A/(3c/A/F/ (3_c/A/F/(3_c/A/F/ (3z/ F/_A/(3_c/A/F/ (3c/A/F/(3c/A/F/ | %14
 (3z/ _F/=G/(3B/G/=F/ (3B/G/F/(3B/G/F/ (3z/ E/_G/(3A/_G/E/ (3A/_G/E/(3A/_G/E/ | %15
 (3z/ B,/E/(3G/E/B,/ (3=A,/B,/E/(3G/E/B,/ (3z/ B,/E/(3G/E/B,/ (3=A,/B,/E/(3G/E/B,/ | %16
 (3z/ _A,/E/(3G/E/A,/ (3=G,/A,/E/(3_G/E/B,/ (3z/ A,/D/(3F/D/A,/ (3G,/A,/D/(3F/D/A,/ | %17
 (3z/ G,/D/(3G/E/G,/ (3F,/G,/D/(3_G/D/G,/ (3z/ G,/=C/(3E/C/G,/ (3F,/G,/C/(3G/C/G,/ | %18
 (3z/ F,/=C/(3E/C/F,/ (3=E,/F,/=C/(3E/=C/F,/ (3z/ F,/B,/(3D/B,/F,/ (3z/ F,/B,/(3D/B,/F,/ | %19
 z2 E z A2 z =C | E2 D2 z B,=A,B, | D=CCC D2 z =A, | B,4- B,2 z2 || %23
 (3z/ E/G/(3B/G/E/ (3=B,/E/G/(3B/G/E/ (3z/ A/_c/(3=d/c/A/ (3=G/A/c/(3_d/c/A/ | %24
 (3z/ E/G/(3B/G/E/ (3=B,/E/G/(3B/G/E/ (3z/ B/=d/(3f/d/B/ (3=E/F/__e/(3f/=e/F/ | %25
 (3z/ G/d/(3g/d/G/ (3F/G/d/(3g/d/G/ (3z/ e/g/(3a/g/e/ (3=d/e/g/(3e'/g/e/ | %26
 (3z/ d/f/(3a/f/d/ (3a/d/f/(3a/f/d/ (3z/ d/f/(3g/f/d/ (3=c/d/f/(3d'/f/d/ | %27
 (3z/ _c/e/(3g/e/c/ (3[BB]/c/e/(3g/e/c/ (3z/ c/e/(3a/e/c/ (3B/c/e/(3c'/e/c/ | %28
 (3z/ B/=d/(3f/d/B/ (3f/d/B/(3f/d/B/ (3z/ B/_d/(3f/d/B/ (3_f/d/B/(3_f/d/B/ | %29
 (3z/ __B/=c/(3e/c/B/ (3e/c/B/(3e/c/B/ (3z/ A/_c/(3d/c/A/ (3d/c/A/(3d/c/A/ | %30
 (3z/ E/A/(3c/A/E/ (3=B,/E/A/(3c/A/E/ (3z/ E/A/(3c/A/E/ (3=D/E/A/(3c/A/E/ | %31
 (3z/ _D/A/(3c/A/D/ (3=C/D/A/(3_c/A/E/ (3z/ D/G/(3B/G/D/ (3C/D/G/(3B/G/D/ | %32
 (3z/ C/G/(3c/A/C/ (3B,/C/G/(3_c/G/C/ (3z/ C/F/(3A/F/C/ (3B,/C/F/(3c/F/C/ | %33
 (3z/ B,/F/(3A/F/B,/ (3=A,/B,/=F/(3A/=F/B,/ (3z/ B,/E/(3G/E/B,/ (3A,/B,/E/(3G/E/B,/ | %34
 (3z/ A,/E/(3G/E/A,/ (3G,/A,/E/(3_G/E/A,/ (3z/ A,/D/(3F/D/A,/ (3=G,/A,/D/(3F/D/A,/ | %35
 (3z/ _G,/D/(3_F/D/G,/ (3F,/G,/D/(3_F/D/A,/ (3z/ G,/C/(3E/C/G,/ (3F,/G,/C/(3E/C/G,/ | %36
 (3z/ F,/C/(3_F/D/F,/ (3=E,/F,/C/(3_F/C/F,/ (3z/ A,/B,/(3=D/B,/A,/ (3=G,/A,/B,/(3_D/B,/A,/ | %37
 (3z/ =G,/B,/(3E/B,/G,/ (3z/ G,/B,/(3E/B,/G,/ (3z/ B,/D/(3E/D/B,/ (3z/ B,/D/(3E/D/B,/ | %38
 (3z/ A,/D/(3E/D/A,/ (3z/ C/E/(3A/E/C/ (3z/ C/=D/(3F/D/C/ (3z/ A,/D/(3F/D/A,/ | %39
 (3z/ G,/B,/(3E/B,/G,/ (3z/ G,/B,/(3E/B,/G,/ (3z/ G,/B,/(3E/B,/G,/ (3z/ B,/D/(3E/D/B,/ | %40
 (3z/ A,/D/(3E/D/A,/ (3z/ A,/C/(3E/C/A,/ (3z/ A,/C/(3E/C/A,/ (3z/ A,/B,/(3=D/B,/B,/ | %41
 (3z/ =G,/B,/(3E/B,/G,/ (3z/ G,/A,/(3E/B,/G,/ (3z/ G,/B,/(3E/B,/G,/ (3z/ G,/B,/(3E/B,/G,/ | %42
 (3z/ =G,/B,/(3E/B,/G,/ (3z/ G,/B,/(3E/B,/G,/ (3z/ G,/B,/(3E/B,/G,/[K:bass] (3z/ E,/=G,/(3B,/G,/E,/- | %43
 [E,E]4 [=G,B,E]2 [G,B,E]2 | [=G,B,E]8 |] %45
V:2
 z2 B z e2 z G | (B2 A2) z F=EF | AGG[GG] A3 G | F4- F2 z2 | z2 B z e2 z G | B2 A2 z F=EF | %6
 A=GG[=GG] A2 z =E | F4- F2 z2 | z2 B z d2 z =A | z2 B z f2 z c | z ddd =c'3 b | beee b3 a | %12
 addd a3 g | f=c=c=c c_ccc | cBBB BAAA | z2 B z e2 z G | B2 A2 z F=EF | AGG[GG] A3 G | F4- F2 z2 | %19
 x8 | x8 | x8 | x8 || z2 e z g2 z =d | z2 e z b2 z f | z gg[gg] f'3 e' | e'aaa e'3 d' | %27
 d'ggg d'3 c' | bfff f_fff | _feee eddd | z2 e z a2 z c | e2 d2 z B=AB | dcc[cc] d3 c | B4- B2 z2 | %34
 z2 A z d2 z F | A2 G2 z E=DE | G=FF[=FF] G3 =D | E2 z2 z2 B z | e2 z A c2 z F | B z z z z2 z z | %40
 z z z z z2 z z | z z z z z2 B z | e2 z E B2[K:bass] z B, | x8 | x8 |] %45
V:3
!ped! [E,,E,] z z2!ped-up!!ped! [D,,D,]4!ped-up! | %1
!ped! [=C,,=C,] z z2!ped-up!!ped! [D,,D,]2 z2!ped-up! | [B,,,B,,] z z2 [=C,,=C,] z z2 | %3
 [=A,,,=A,,] z z2 [B,,,B,,]2 z2 | [E,,E,] z z2 [D,,D,]4 | [=C,,=C,] z z2 [D,,D,]2 z2 | %6
 [B,,,B,,] z z2 [=C,,=C,] z z2 | [F,,,F,,] z z2 =C,2 F,,2 | [D,,D,] z z2 [E,,E,]4 | %9
 [_D,,_D,] z z2 [G,,G,]4 | [F,,F,] z z2 [=G,,=G,]4 | [A,,A,] z z2 [F,,F,]4 | %12
 [G,,G,] z z2 [E,,E,] z z2 | [E,,E,]8- | [E,,E,]8 | [E,,E,] z z2 [D,,D,]4 | %16
 [=C,,=C,] z z2 [D,,D,]2 z2 | [B,,,B,,] z z2 [=C,,=C,] z z2 | %18
 [=A,,,=A,,] z z2 [B,,,B,,] z [D,,D,] z | [=G,,,=G,,] z =D, z [G,,,G,,] z =D, z | %20
 [F,,,F,,] z =C, z [G,,,G,,] z C, z | [E,,,E,,] z =B,, z [F,,,F,,] z =D, z | %22
 [B,,,B,,] z B,, z F,, z B,,, z || [G,,G,] z z2 [A,,A,]4 | [G,,G,] z z2 [_C,_C]4 | %25
 [B,,B,] z z2 [=C,=C]4 | [D,D] z z2 [B,,B,]4 | [_C,_C] z z2 [A,,A,] z z2 | [A,,A,]8- | [A,,A,]8 | %30
 [A,,A,] z z2 [G,,G,]4 | [F,,F,] z z2 [G,,G,]2 z2 | [E,,E,] z z2 [F,,F,] z z2 | %33
 [=D,,=D,] z z2 [E,,E,]2 z2 | [=C,,=C,] z z2 [_C,,_C,]4 | [B,,,B,,] z z2 [C,,C,]2 z2 | %36
 [A,,,A,,] z z2 [B,,,B,,] z z2 | [E,,,E,,] z B,, z E,2 z =G,, | A,,,4 A,,,2 B,,,2 | %39
 E,,,2 z2 E,,2 z =G,,, | B,,,2 A,,,4 B,,,2 | [E,,B,,]2 B,, z E,3 =G,, | B,,2 E,,2 =G,,2 B,,,2- | %43
 [E,,,B,,,]4 [B,,E,]2 [B,,E,]2 | [E,,B,,E,]8 |] %45
V:4
 x8 | x8 | x8 | x8 | x8 | x8 | x8 | x8 | x8 | x8 | x8 | x8 | x8 | E,2 C2- CD D>D | %14
 =D_DDD D[A,=C][A,C][A,C] | x8 | x8 | x8 | x8 | %19
 (3z/ E,/B,/(3D/B,/E,/ (3z/ E,/B,/(3D/B,/E,/ (3z/ E,/A,/(3=C/A,/E,/ (3z/ E,/A,/(3=C/A,/E,/ | %20
 (3z/ D,/A,/(3_C/A,/D,/ (3z/ D,/A,/(3_C/A,/D,/ (3z/ D,/G,/(3B,/G,/D,/ (3z/ D,/G,/(3B,/G,/D,/ | %21
 (3z/ C,/G,/(3=C/G,/C,/ (3z/ C,/G,/(3=C/G,/C,/ (3z/ E,/F,/(3=A,/F,/E,/ (3z/ E,/F,/(3=A,/F,/E,/ | %22
 (3z/ =D,/F,/(3B,/F,/D,/ (3z/ D,/F,/(3B,/F,/D,/ (3z/ D,/F,/(3B,/F,/D,/ (3z/ D,/F,/(3B,/F,/D,/ || %23
 x8 | x8 | x8 | x8 | x8 | A,2 F2- F=G G>G | =G_GGG [GG][DF][DF][DF] | x8 | x8 | x8 | x8 | x8 | x8 | %36
 x8 | x8 | B,,2 A,,4 B,,2 | E,, z B,,, z z2 B,, z | E,2 z A,, C,3 B,, | x3 z x4 | x8 | x8 | x8 |] %45

